src/assets/vectors/fa-telegram.svg

<svg width="20" height="16" viewBox="0 0 20 16" fill="none" xmlns="http://www.w3.org/2000/svg">
<path d="M19.485 1.45659L16.606 15.0342C16.3888 15.9924 15.8223 16.2309 15.0174 15.7795L10.6306 12.5469L8.51394 14.5827C8.2797 14.817 8.08379 15.0129 7.63234 15.0129L7.9475 10.5452L16.0779 3.19851C16.4314 2.88334 16.0012 2.70873 15.5285 3.02389L5.4773 9.35271L1.15019 7.99836C0.208963 7.70449 0.191927 7.05713 1.34611 6.60568L18.2712 0.0852048C19.0549 -0.208664 19.7406 0.259822 19.485 1.45659Z" fill="#F0F1F3"/>
</svg>

<svg xmlns="http://www.w3.org/2000/svg" width="20" height="16" viewBox="0 0 20 16" fill="none"><path d="M19.485 1.457l-2.88 13.578c-.217.958-.784 1.197-1.59.745l-4.387-3.233-2.117 2.036c-.234.234-.43.43-.882.43l.315-4.468 8.13-7.347c.354-.315-.077-.5-.55-.175l-10.05 6.33L1.15 7.998c-.94-.294-.958-.94.196-1.393L18.27.085c.784-.294 1.47.175 1.214 1.37z" fill="#f0f1f3"/></svg>
